X:1
T: The Highlanders in Paris
C:
R:Strathspey
Q: 128
K:Dm
M:4/4
L:1/16
|:A,2|DD3 D3F E3D C2E2|DD3 D3E F3G A3=B|c3d c2A2 GFED C2E2|F3G AGFE FD3 D2A,2|
DD3 D3F E3D C2E2|DD3 D3E F3G A3=B|c3d c2A2 GFED C2E2|F3G AGFE FD3 D2C2|
Dd3 d3e c3d c2G2|Ad3 d3e f3g f2d2|c3d c3A GFED C2E2|F3G AGFE FD3 D2C2|
Dd3 d3e c3d c2G2|Ad3 d3e f3g f2d2|c3d c3A GFED C2E2|F3G AGFE FD3 D2:|
